images/filter--edit.svg

<svg viewBox="0 0 32 32" xmlns="http://www.w3.org/2000/svg"><path d="m26 6h-22v3.17l7.41 7.42.59.58v8.83h4v-2h2v2a2 2 0 0 1 -2 2h-4a2 2 0 0 1 -2-2v-8l-7.41-7.41a2 2 0 0 1 -.59-1.42v-3.17a2 2 0 0 1 2-2h22z"/><path d="m29.71 11.29-3-3a1 1 0 0 0 -1.42 0l-9.29 9.3v4.41h4.41l9.3-9.29a1 1 0 0 0 0-1.42zm-10.12 8.71h-1.59v-1.59l5-5 1.59 1.59zm6.41-6.41-1.59-1.59 1.59-1.59 1.59 1.59z"/><path d="m0 0h32v32h-32z" fill="none"/></svg>

<svg id="icon" xmlns="http://www.w3.org/2000/svg" viewBox="0 0 32 32"><defs><style>.cls-1{fill:none;}</style></defs><title>filter--edit</title><path d="M26,6H4V9.17l7.41,7.42.59.58V26h4V24h2v2a2,2,0,0,1-2,2H12a2,2,0,0,1-2-2V18L2.59,10.59A2,2,0,0,1,2,9.17V6A2,2,0,0,1,4,4H26Z"/><path d="M29.71,11.29l-3-3a1,1,0,0,0-1.42,0L16,17.59V22h4.41l9.3-9.29A1,1,0,0,0,29.71,11.29ZM19.59,20H18V18.41l5-5L24.59,15ZM26,13.59,24.41,12,26,10.41,27.59,12Z"/><rect id="_Transparent_Rectangle_" data-name="&lt;Transparent Rectangle&gt;" class="cls-1" width="32" height="32"/></svg>
